!! 00000] TT[00
!! NN
!!!OTL: Shun caicha
!!!ARE: Asia, China,Zhejiang, Jiande
!! Ethnic Group: Han
!! III, 639 (2)
!!!SCT: C0363
!!!YEM: Copyright 1995, estate of Helmut Schaffrath.
**kern
*ICvox
*Ivox
*M3/4
*k[f#c#g#]
*A:
{8a
16f#
16a
8.cc#
16b
4cc#
=1
8ee
16cc#
16b
8.a
16f#
4a}
=2
{8a
8cc#
8.b
16a
4f#
=3
8a
16b
16cc#
8.f#
16e
4f#}
=4
{8a
16a
16f#
8.cc#
16b
4cc#
=5
8ee
16cc#
16b
8.a
16f#
4a}
=6
{8a
8cc#
8.b
16a
4f#
=7
8a
16b
16cc#
8.f#
16e
4f#}
==
!!!AGN: Deng diao; Teepfluecken
!!!ONB: ESAC (Essen Associative Code) Database: CHINA_051
!!!AMT: simple triple
!!!AIN: vox
!!!EED: Helmut Schaffrath
!!!EEV: 1.0
*-
